X:1
T:Title
%%score ( 1 2 ) 3
L:1/8
Q:1/4=100
M:3/4
K:Eb
V:1 treble nm="Violin, SOPRANO ALTO"
V:2 treble 
V:3 bass nm="Violin, TENOR BASS"
V:1
 z2 z2 [EG]>[FA] | [GB]3 [GB] [Ac]>[Ac] | [GB]2 [EG]2 [FA]>[EG] | [DF]3 [EG] [GB]>[FA] | %4
w: 1.~Let~ the~|gates~ of~ praise~ be~|o pen,~ Sound ing~|forth~ the~ joy~ with|
 [EG]4 [EG]>[FA] | [GB]3 [GB] [Ac]>[Ac] | [GB]2 [EG]2 [EB]>[Ac] | [GB]3 [EG] [DF]>[DG] | %8
w: in;~ Shout~ and~|sing,~ the~ Lord~ hath~|spo ken�~ For~ He~|saves~ and~ keeps~ from~|
[M:4/4] z8 | z8 | z8 | z8 | z8 | z8 | z8 | z4 z2 e2- | e4 z4 |] %17
w: |||||||where.~||
V:2
 x6 | x6 | x6 | x6 | x6 | x6 | x6 | x6 |[M:4/4] E4 [GB]>[EG] [DF]2- | %9
w: ||||||||* Praise~ Him~ in~|
 [DF]3- [DF]/[Ac]/ [GB]>[FA] [EG]2- | [EG]3- [EG]/[EG]/ [GB]>[EG] [FA]2- | %11
w: * * the~ sanc tu ar|* * y,~ Praise~ Him~ in~|
 [FA]3- [FA]/[GB]/ [Bd]>[Ac] [GB]2- | [GB]4 [GB]>[GB] [Ge]2- | [Ge]3- [Ge]/[Ge]/ [Af]>[Ge] [Ac]2- | %14
w: * * our~ song~ and~ prayer;~|* Praise~ Him,~ day~|* * and~ night~ a dore~|
 [Ac]3- [Ac]/[Ac]/ [Bd]>[Ac] [GB]2- | [GB]3- [GB]/[GB]/ [Ac]>[Ad] G>G | A>A G2 z4 |] %17
w: * * Him,~ Praise~ Him,~ praise~|* * Him~ * ry * *||
V:3
 z2 z2 [E,B,]>[E,B,] | [E,E]3 [E,E] [E,E]>[E,E] | [E,E]2 B,2 [D,B,]>[E,B,] | %3
 [B,,B,]3 [B,,B,] [B,,B,]>[B,,B,] | [E,B,]4 [E,B,]>[E,B,] | [E,E]3 [E,E] [E,E]>[E,E] | %6
 [E,E]2 [E,B,]2 [G,E]>[A,E] | [B,E]3 [B,,B,] [B,,A,]>[B,,A,] |[M:4/4] [E,G,]4 z2 [B,,B,]2 | %9
 [B,,B,]2 [B,,B,]2 [B,,B,]2 [E,B,]>[E,B,] | [E,B,]>[E,B,] [E,B,]>[E,B,] [E,B,]>[E,B,] [B,,B,]2 | %11
 [B,,B,]2 [B,,B,]2 [B,,D]2 [E,E]>[E,E] | [E,E]>[E,E] [E,E]2 z2 [E,B,]2 | %13
 [E,B,]2 [E,B,]2 [E,E]2 [A,E]>[A,E] | [A,E]>[A,E] [A,E]>[A,E] [A,E]>[A,E] [B,E]2 | %15
 [B,E]2 [B,,B,]2 [B,,B,]2 [E,B,]>[E,B,] | [E,C]>[E,C] [E,B,]2 z4 |] %17

